X: 12
T: The Banshee
R: reel
M: 4/4
L: 1/8
K: Gmaj
"G"~G3D EDEG|AGAB d2 Bd|"C"eged BAGA|"G"BAGE "D"EDEF|
"G"~G3D EDEG|AGAB d2 Bd|"C"eged BAGA|"G"BAGE "D"EDD2:||
"C"eaag "D"efge|"Em"dBBA B2Bd|"Em"e~B3 eBgB|eBBA B2Bd|
"C"eaag "D"efge|"Em"dBBA B2Bd|"C"eged BAGA|"G"BAGE "D"EDD2:||

